!!!Xfilter:transpose -t P8
!!!OTL: 1094. Von unmoeglichen Dingen.
!!!ODT: 1819
!!!ARE: Europa, Mitteleuropa, Deutschland, Rheinland, Bonn
!!!SCT: E1094
!!!TXL: @@DE
!!!YEM: Copyright 1995, estate of Helmut Schaffrath.
**kern	**text
*ICvox	*
*M2/4	*
*k[]	*
*C:	*
=1	=1
!LO:TX:a:t=Mäßig geschwing.	!
!LO:TX:a:t=Aus der Gegend von Bonn 1819.	!
{8.cc	Wenn
16dd	du
8ee	willſt
8cc	mein
=2	=2
8dd	Schätʒ-
8b	-chen
4g}	bleibn,
=3	=3
{8.a	mußt
16b/	du
8cc	Al-
8a	-les
=4	=4
8gL	mei-
8fJ	.
8e	-den,
8r}	.
=5	=5
{8.f	mußt
16a	du
8g	mir
8e	ein
=6	=6
8f	Kind
8a	ge-
4g}	-bärn
=7	=7
{8.cc	und
16dd	ein
8ee	Jung-
8cc	-fer
=8	=8
8bL	blei-
8ddJ	.
8cc	-ben.
8r}	.
==	==
!!!AGN: Wunsch - Lied, Luegen - Maerchen
!!!ONB: ESAC (Essen Associative Code) Database: ERK3
!!!AMT: simple duple
!!!AIN: vox
!!!EED: Helmut Schaffrath
!!!EEV: 1.0
!!!GTL: Raethsel-, Wett- und Wunschlieder, nebst Luegenmaerchen.
!!!URL-scan: https://rosdok.uni-rostock.de/mcrviewer/recordIdentifier/rosdok_ppn745177999/iview2/phys_0042.iview2?x=187.70929000834008&y=882.605846895487&scale=0.701185927818147&rotation=0&layout=singlePageLayout
!!!ENC: Anna Maria Matuszewska
!!!EEV: 2024/12/23
*-	*-
